X:14800
T:Sally Gardens (Harmony line
S:Indeterminate
I:speed 240
M:Cs
K:G
|: G2A2 | B2c2 |  dedc | BAGF | G2A2 | B2c2 | dedc | BFG2:|
|:GdcB | GdcB | Aedc | Aedc | GdcB | GdcB | dcBA  | GFG2:|
